dist/svgs/wps.svg

<svg xmlns="http://www.w3.org/2000/svg" viewBox="0 0 512 512"><path d="M511 91q1 2 1 6 0 8-4 15L360 424q-7 9-15 13-7 3-17 1t-21-16l-40-83q-1-2-1-4 0-4 1-7l32-62 29 65q2 3 4 4 4 2 7-4l90-185q1-2 1-5 0-5-4-6h-79q-2 0-4 1-4 2-7 10L206 422q-3 5-7 9-9 9-19 9-4 2-8 0t-9.5-5.5T151 422L2 109q-4-6-3-12 0-13 19-21h180q3 1 7 3 3 2 6.5 5.5T217 94l29 62-32 71-37-79q-1-3-3-6-4-5-13-7H87q-1 1-2 3-2 4 2 10l88 180q1 3 3 4t3.5 1 3.5-5L294 96q1-5 4-9 2-3 5.5-6t8.5-3h183q3 0 7 2 8 4 9 11z"/></svg>

<?xml version="1.0" encoding="UTF-8" standalone="no"?><svg   xmlns:svg="http://www.w3.org/2000/svg"   xmlns="http://www.w3.org/2000/svg"   version="1.1"   width="512"   height="512"   viewBox="0 0 512 512">  <path     d="M511 91Q512 93 512 97Q512 105 508 112L360 424Q353 433 345 437Q338 440 328 438T307 422L267 339Q266 337 266 335Q266 331 267 328L299 266L328 331Q330 334 332 335Q336 337 339 331L429 146Q430 144 430 141Q430 136 426 135H347Q345 135 343 136Q339 138 336 146L206 422Q203 427 199 431Q190 440 180 440Q176 442 172 440T162.5 434.5T151 422L2 109Q-2 103 -1 97Q-1 84 18 76H198Q201 77 205 79Q208 81 211.5 84.5T217 94L246 156L214 227L177 148Q176 145 174 142Q170 137 161 135H87Q86 136 85 138Q83 142 87 148L175 328Q176 331 178 332T181.5 333T185 328L294 96Q295 91 298 87Q300 84 303.5 81T312 78H495Q498 78 502 80Q510 84 511 91z"     id="wps" /></svg>
